_inc/images/systems/logos/atari.svg

<svg viewBox="0 0 3840 911.2" xmlns="http://www.w3.org/2000/svg">
    <path class="st1" d="M404.5 2c23-.1 45.9 0 68.9-.1.1 54 0 108 0 162.1.2 45.1-1 90.2-2.9 135.2-3.1 65-7.1 130.2-17.9 194.5-7.4 44.3-22.7 87.1-41.8 127.7-31 65.4-79.8 120.8-134.6 167.3-49 43.2-107.6 74.6-169.1 95.8-34.8 12-70.7 21.2-107.2 26.4V775c43.9-6.6 86.2-22.2 125.4-42.8 46.5-24.6 88.4-57.7 123.7-96.7 36.4-40.3 65.4-86.9 87.5-136.4 25.9-56.9 39.8-118.4 49.3-180 11.8-78.3 16.8-157.5 18.6-236.6.3-26.9.1-53.7.1-80.5Zm96.7.1c42.3-.3 84.6 0 126.9-.1v909c-42.2.1-84.4-.2-126.6.2-.5-96.6-.1-193.2-.2-289.8-.1-206.6 0-412.9-.1-619.3Zm155.1-.2c22.9 0 45.7-.1 68.5 0-.7 92.4 2.4 184.9 13.4 276.7 9 71.3 21.7 143.1 50.1 209.5 26.9 64.3 65.7 124 116.3 172.1 48.3 46 106.8 81.4 170.4 101.8 17.7 5.7 35.9 10.1 54.3 12.8v135.8c-36.2-4.9-71.8-14.2-106.3-26-41.2-14.3-81-32.9-117.6-56.7-26.7-17.2-51-37.7-74.3-59.2-38.4-35.5-72.9-75.8-98.7-121.4-20.2-35.5-35-73.9-46.5-113.1-10.6-39.4-15.1-80-19.2-120.5-7.9-87.4-10.9-175.3-10.3-263.1-.1-49.3-.1-99-.1-148.7Zm890 37.6c35.4-45.2 108.5-53 151.9-15 17.7 14.9 30.2 35.6 36.5 57.7 80.3 276.3 161 552.5 241.2 828.9-47.4 0-94.8-.1-142.2 0-22.4-76.2-44.2-152.5-66.3-228.8-91.7-.2-183.3 0-274.9-.1-22.4 76.2-44.6 152.5-66.6 228.9-47.1-.2-94.3 0-141.4-.1 76.3-263.6 152.7-527.2 229.3-790.7 9.2-27.5 12.6-58.3 32.5-80.8m83.7 169.3c-33.6 114.5-66.5 229.2-99.9 343.7 66.6.3 133.2.1 199.8.1-33.4-114.6-66.6-229.2-99.9-343.8Zm914.7-163.4c24.7-35.8 72.4-53.2 114.5-42.1 38.5 8.9 67.9 42 78.1 79.4 80.2 276.1 160.8 552.1 241 828.3-47.5.4-94.9 0-142.4.2-22.1-76.3-43.9-152.6-66.1-228.8-91.5 0-183-.2-274.5.1-21.9 76.3-44.4 152.4-66.3 228.7h-141.3c76.3-265.1 153.4-529.9 230.3-794.8 8.1-23.9 11.2-50.3 26.7-71m-11.5 507.3c66.3.1 132.6.1 199 .1-33-114.9-66.6-229.6-99.4-344.4-33.2 114.7-66.6 229.4-99.6 344.3ZM1869.8 1.9h514.3v138.7c-63.2 0-126.2-.1-189.3 0V911h-135.6V140.6c-63.1-.1-126.2 0-189.4 0V1.9ZM3129 7.6c13-4.5 26.9-6 40.7-5.7 54.1.2 108.1 0 162.2.1 91 1.7 177.9 58.2 217.3 140.1 27.3 53.2 30.1 115.1 23.2 173.5-4.8 61.1-30.4 122.2-77.3 162.7-24.8 22.1-55.7 35.5-82.3 55.2-14.6 11.1-15.3 32.7-7.8 48.1 71.7 110.8 146.3 219.8 219.6 329.6-53.6.1-107.1-.1-160.7.1-70.1-105.3-139.5-211.2-209.4-316.7-20.5-30-26.1-69.8-13.8-104 9.6-26.3 32.6-45.5 58.2-55.4 48.8-18.6 97-47.9 124-94 20.6-34.6 19.5-77.4 10.3-115.3-10.9-49.2-58.8-87.9-109.5-86.2-35 .2-70-.2-105 .2-15.8-.4-30.7 13.4-30.5 29.4-.2 247.3.1 494.7-.1 742-45.6-.1-91.1 0-136.6-.1-.1-266.3.1-532.5-.1-798.8.1-46.8 33.3-90.7 77.6-104.8Zm567.2-5.7H3840c0 303.1.1 606.1-.1 909.2-47.9-.1-95.8 0-143.7 0V1.9Z" style="fill:#fff"/>
</svg>

<?xml version="1.0" encoding="utf-8"?>
<svg version="1.1" viewBox="0 0 3840 911.2" xmlns="http://www.w3.org/2000/svg">
  <path class="st1" d="M 404.5 2 C 427.5 1.9 450.4 2 473.4 1.9 C 473.5 55.9 473.4 109.9 473.4 164 C 473.6 209.1 472.4 254.2 470.5 299.2 C 467.4 364.2 463.4 429.4 452.6 493.7 C 445.2 538 429.9 580.8 410.8 621.4 C 379.8 686.8 331 742.2 276.2 788.7 C 227.2 831.9 168.6 863.3 107.1 884.5 C 72.3 896.5 36.4 905.7 -0.1 910.9 C -0.1 865.6 -0.1 820.3 -0.1 775 C 43.8 768.4 86.1 752.8 125.3 732.2 C 171.8 707.6 213.7 674.5 249 635.5 C 285.4 595.2 314.4 548.6 336.5 499.1 C 362.4 442.2 376.3 380.7 385.8 319.1 C 397.6 240.8 402.6 161.6 404.4 82.5 C 404.7 55.6 404.5 28.8 404.5 2 Z" style="fill: rgb(255, 255, 255);"/>
  <path class="st1" d="M 501.2 2.1 C 543.5 1.8 585.8 2.1 628.1 2 C 628.1 305 628.1 608 628.1 911 C 585.9 911.1 543.7 910.8 501.5 911.2 C 501 814.6 501.4 718 501.3 621.4 C 501.2 414.8 501.3 208.5 501.2 2.1 Z" style="fill: rgb(255, 255, 255);"/>
  <path class="st1" d="M 656.3 1.9 C 679.2 1.9 702 1.8 724.8 1.9 C 724.1 94.3 727.2 186.8 738.2 278.6 C 747.2 349.9 759.9 421.7 788.3 488.1 C 815.2 552.4 854 612.1 904.6 660.2 C 952.9 706.2 1011.4 741.6 1075 762 C 1092.7 767.7 1110.9 772.1 1129.3 774.8 C 1129.3 820.1 1129.3 865.4 1129.3 910.6 C 1093.1 905.7 1057.5 896.4 1023 884.6 C 981.8 870.3 942 851.7 905.4 827.9 C 878.7 810.7 854.4 790.2 831.1 768.7 C 792.7 733.2 758.2 692.9 732.4 647.3 C 712.2 611.8 697.4 573.4 685.9 534.2 C 675.3 494.8 670.8 454.2 666.7 413.7 C 658.8 326.3 655.8 238.4 656.4 150.6 C 656.3 101.3 656.3 51.6 656.3 1.9 Z" style="fill: rgb(255, 255, 255);"/>
  <path class="st1" d="M 1546.3 39.5 C 1581.7 -5.7 1654.8 -13.5 1698.2 24.5 C 1715.9 39.4 1728.4 60.1 1734.7 82.2 C 1815 358.5 1895.7 634.7 1975.9 911.1 C 1928.5 911.1 1881.1 911 1833.7 911.1 C 1811.3 834.9 1789.5 758.6 1767.4 682.3 C 1675.7 682.1 1584.1 682.3 1492.5 682.2 C 1470.1 758.4 1447.9 834.7 1425.9 911.1 C 1378.8 910.9 1331.6 911.1 1284.5 911 C 1360.8 647.4 1437.2 383.8 1513.8 120.3 C 1523 92.8 1526.4 62 1546.3 39.5 M 1630 208.8 C 1596.4 323.3 1563.5 438 1530.1 552.5 C 1596.7 552.8 1663.3 552.6 1729.9 552.6 C 1696.5 438 1663.3 323.4 1630 208.8 Z" style="fill: rgb(255, 255, 255);"/>
  <path class="st1" d="M 2544.7 45.4 C 2569.4 9.6 2617.1 -7.8 2659.2 3.3 C 2697.7 12.2 2727.1 45.3 2737.3 82.7 C 2817.5 358.8 2898.1 634.8 2978.3 911 C 2930.8 911.4 2883.4 911 2835.9 911.2 C 2813.8 834.9 2792 758.6 2769.8 682.4 C 2678.3 682.4 2586.8 682.2 2495.3 682.5 C 2473.4 758.8 2450.9 834.9 2429 911.2 C 2381.9 911.2 2334.8 911.2 2287.7 911.2 C 2364 646.1 2441.1 381.3 2518 116.4 C 2526.1 92.5 2529.2 66.1 2544.7 45.4 M 2533.2 552.7 C 2599.5 552.8 2665.8 552.8 2732.2 552.8 C 2699.2 437.9 2665.6 323.2 2632.8 208.4 C 2599.6 323.1 2566.2 437.8 2533.2 552.7 Z" style="fill: rgb(255, 255, 255);"/>
  <path class="st1" d="M 1869.8 1.9 C 2041.3 1.9 2212.7 1.9 2384.1 1.9 C 2384.1 48.2 2384.1 94.4 2384.1 140.6 C 2320.9 140.6 2257.9 140.5 2194.8 140.6 C 2194.8 397.4 2194.8 654.2 2194.8 911 C 2149.6 911 2104.4 911 2059.2 911 C 2059.2 654.2 2059.2 397.4 2059.2 140.6 C 1996.1 140.5 1933 140.6 1869.8 140.6 C 1869.8 94.4 1869.8 48.2 1869.8 1.9 Z" style="fill: rgb(255, 255, 255);"/>
  <path class="st1" d="M 3129 7.6 C 3142 3.1 3155.9 1.6 3169.7 1.9 C 3223.8 2.1 3277.8 1.9 3331.9 2 C 3422.9 3.7 3509.8 60.2 3549.2 142.1 C 3576.5 195.3 3579.3 257.2 3572.4 315.6 C 3567.6 376.7 3542 437.8 3495.1 478.3 C 3470.3 500.4 3439.4 513.8 3412.8 533.5 C 3398.2 544.6 3397.5 566.2 3405 581.6 C 3476.7 692.4 3551.3 801.4 3624.6 911.2 C 3571 911.3 3517.5 911.1 3463.9 911.3 C 3393.8 806 3324.4 700.1 3254.5 594.6 C 3234 564.6 3228.4 524.8 3240.7 490.6 C 3250.3 464.3 3273.3 445.1 3298.9 435.2 C 3347.7 416.6 3395.9 387.3 3422.9 341.2 C 3443.5 306.6 3442.4 263.8 3433.2 225.9 C 3422.3 176.7 3374.4 138 3323.7 139.7 C 3288.7 139.9 3253.7 139.5 3218.7 139.9 C 3202.9 139.5 3188 153.3 3188.2 169.3 C 3188 416.6 3188.3 664 3188.1 911.3 C 3142.5 911.2 3097 911.3 3051.5 911.2 C 3051.4 644.9 3051.6 378.7 3051.4 112.4 C 3051.5 65.6 3084.7 21.7 3129 7.6 Z" style="fill: rgb(255, 255, 255);"/>
  <path class="st1" d="M 3696.2 1.9 C 3744.1 1.9 3792 1.9 3840 1.9 C 3840 305 3840.1 608 3839.9 911.1 C 3792 911 3744.1 911.1 3696.2 911.1 C 3696.2 608 3696.2 305 3696.2 1.9 Z" style="fill: rgb(255, 255, 255);"/>
</svg>
